icons/communication/message-alert-24.svg

<svg width="24" height="24" viewBox="0 0 24 24" fill="none" xmlns="http://www.w3.org/2000/svg">
<path d="M13.0303 7.21967C12.8897 7.07902 12.6989 7 12.5 7C12.3011 7 12.1103 7.07902 11.9697 7.21967C11.829 7.36032 11.75 7.55109 11.75 7.75V11.75C11.75 11.9489 11.829 12.1397 11.9697 12.2803C12.1103 12.421 12.3011 12.5 12.5 12.5C12.6989 12.5 12.8897 12.421 13.0303 12.2803C13.171 12.1397 13.25 11.9489 13.25 11.75V7.75C13.25 7.55109 13.171 7.36032 13.0303 7.21967Z" fill="black"/>
<path d="M13.2071 15.7071C13.0196 15.8946 12.7652 16 12.5 16C12.2348 16 11.9804 15.8946 11.7929 15.7071C11.6054 15.5196 11.5 15.2652 11.5 15C11.5 14.7348 11.6054 14.4804 11.7929 14.2929C11.9804 14.1054 12.2348 14 12.5 14C12.7652 14 13.0196 14.1054 13.2071 14.2929C13.3947 14.4804 13.5 14.7348 13.5 15C13.5 15.2652 13.3947 15.5196 13.2071 15.7071Z" fill="black"/>
<path fill-rule="evenodd" clip-rule="evenodd" d="M3.78057 15.2767C3.27821 14.1184 3.00001 12.8408 3.00001 11.5C3.00001 6.25329 7.2533 2 12.5 2C17.7467 2 22 6.25329 22 11.5C22 16.7467 17.7467 21 12.5 21C10.9989 21 9.57728 20.6513 8.3135 20.03L3.13105 20.6928C2.36666 20.7906 1.7836 20.0234 2.08244 19.3131L3.78057 15.2767ZM4.50001 11.5C4.50001 7.08172 8.08173 3.5 12.5 3.5C16.9183 3.5 20.5 7.08172 20.5 11.5C20.5 15.9183 16.9183 19.5 12.5 19.5C11.1663 19.5 9.91092 19.1742 8.80691 18.5986C8.78317 18.5862 8.75906 18.5752 8.73469 18.5656C8.61691 18.516 8.48487 18.4958 8.34898 18.5132L3.80161 19.0948L5.23708 15.6828C5.37227 15.4713 5.39825 15.1969 5.28177 14.9539C4.78091 13.9092 4.50001 12.7385 4.50001 11.5Z" fill="black"/>
</svg>

<svg xmlns="http://www.w3.org/2000/svg" width="24" height="24"><path d="M13.03 7.22a.75.75 0 00-1.28.53v4a.75.75 0 101.5 0v-4a.75.75 0 00-.22-.53zm.177 8.487a1 1 0 11-1.414-1.414 1 1 0 011.414 1.414z"/><path fill-rule="evenodd" d="M3.78 15.277a9.5 9.5 0 114.533 4.753l-5.182.663a1 1 0 01-1.049-1.38l1.699-4.036zM4.5 11.5a8 8 0 114.307 7.099.746.746 0 00-.458-.085l-4.547.58 1.435-3.411a.75.75 0 00.045-.73A7.966 7.966 0 014.5 11.5z"/></svg>
